svg/u1f984.svg

<svg viewBox="0 0 128 128" xmlns="http://www.w3.org/2000/svg">
  <path d="M51.09,24.81c0,0-10.98-2.51-19.9,1.24c-8.36,3.52-9.55,10.23-8.8,14.08s3.17,7.22,8.02,7.53 c3.31,0.21,4.43-1.69,3.97-2.49c-0.24-0.41-3.75-2.63-2.14-5.4c1.35-2.31,5.9-0.18,7.2,1.83c1.22,1.88,2.82,4.6,2.82,4.6 s13.8-5.91,13.51-6.29S51.09,24.81,51.09,24.81z" fill="#E74B8C"/>
  <polygon fill="#FCD817" points="50.43,32.51 46.11,28.66 39.03,37.25 43.06,43.53 53.34,39.03 "/>
  <path d="M28.85,36.26c-0.54,1.59-0.06,4.14-2.06,4.36c-2.06,0.23-3.55-2.26-2.3-6.24 c1.08-3.43,5.34-5.47,6.99-2.67C32.69,33.77,29.83,33.35,28.85,36.26z" fill="#EF7FAD"/>
  <path d="M38.84,21.01c-0.28,0.47-5.16,7.65-5.16,7.65l4.69,7.46L44,33.26l1.17-5.68L38.84,21.01z" fill="#BBD047"/>
  <polygon fill="#62A5A8" points="33.49,15.52 29.22,20.91 33.4,28.19 37.29,26.26 39.08,21.15 "/>
  <polygon fill="#38B2E8" points="27.67,9.65 24.72,12.75 29.08,20.59 31.57,18.76 33.3,15.28 "/>
  <path d="M22.04,5.76c-1.01,1.01,2.67,6.95,2.67,6.95s2.72-3.1,2.72-3.28C27.44,9.23,23.21,4.58,22.04,5.76z" fill="#A37BCB"/>
  <path d="M45.18,27.2c1.36-0.38,2.3,2.16,1.08,4.74c-1.09,2.3-2.67,4.08-4.79,5.26 c-1.05,0.58-2.63,1.22-3.24,0.09c-0.66-1.21,0.09-1.83,1.41-2.77c1.21-0.87,2.44-2.16,3.14-3.38S44.16,27.48,45.18,27.2z" fill="#A364B2"/>
  <path d="M38.7,20.4c1.1-0.32,1.92,1.88,0.93,4.09c-0.88,1.97-1.97,3.54-3.67,4.55 c-0.84,0.5-2.12,1.05-2.61,0.08c-0.53-1.04-0.03-1.77,1.03-2.58c0.98-0.74,1.83-2.1,2.39-3.14C37.34,22.36,37.88,20.64,38.7,20.4z" fill="#A364B2"/>
  <path d="M33.09,14.4c0.91,0.25,1.55,1.86,0.73,3.51c-0.73,1.47-1.44,2.25-2.86,3 c-0.71,0.37-1.53,0.84-1.98,0.28c-0.57-0.7-0.78-1.7,0.11-2.3c0.82-0.55,1.74-1.22,2.35-2.39C31.85,15.69,32.25,14.17,33.09,14.4z" fill="#A364B2"/>
  <path d="M27.07,8.84c0.62-0.15,1.38,1.15,0.83,2.19c-0.49,0.93-1.12,1.52-2.08,2c-0.47,0.24-1,0.38-1.28-0.07 c-0.3-0.49-0.58-0.83,0.02-1.21c0.55-0.35,1.32-1.14,1.64-1.64C26.52,9.62,26.61,8.96,27.07,8.84z" fill="#A364B2"/>
  <path d="M50.28,119.9c-1.01-0.67,4-18.09,5.97-22.73c1.97-4.65,3.14-8.54,3.14-8.54s-9.43,1.45-15.53,1.5 c-4.65,0.04-11.4-0.56-11.4-0.56L18.94,71.83c0,0,3.8-6.9,6.05-9.71c2.25-2.82,9.01-11.97,12.39-15.2c3.38-3.24,8.02-6.62,10-7.46 c1.97-0.84,3.24-1.41,3.24-1.41s-0.99-6.05-0.56-9.85c0.42-3.8,5.81-14.41,6.66-14.41c1.13,0,6.01,7.23,6.99,12.15 C64.7,30.86,75.4,44.66,75.4,44.66l31.25,59.13c0,0,0.56,15.77,0.42,16.33c-0.14,0.56-17.46,2.96-28.02,2.96 S51.13,120.47,50.28,119.9z" fill="#DFDFDF"/>
  <path d="M71.57,69.38c-1.04-0.05-4.01,5.9-6.99,10.28c-2.51,3.68-5.45,5.45-8.59,7.09 c-3.24,1.69-8.05,2.79-6.41,3.12c1.64,0.33,11.43-0.76,14.71-2.14c1.85-0.77,4.43-4.58,5.75-7.11 C71.36,78.09,73.73,69.47,71.57,69.38z" fill="#B0B0B0"/>
  <path d="M53.79,57.94c0.21,3.1-0.92,5.77-4.15,5.98c-2.28,0.15-3.99-2.16-4.28-4.98 c-0.23-2.2,0.69-5.04,3.7-5.46C51.89,53.08,53.59,55.11,53.79,57.94z" fill="#303030"/>
  <path d="M63.57,25.98c0,0,8.49,3.82,11.76,3.1c2.53-0.56,3.41-2.39,3.52-4.22c0.14-2.46-2.04-2.18-2.39-3.17 s2.25-2.75,5.28-2.18c3.03,0.56,6.64,3.36,6.57,7.86s-2.84,6.92-2.84,6.92s7.3-0.35,12.18,4.65c5.49,5.63,4.29,14.85,4.29,14.85 s2.89,0.42,3.94-1.06s0.77-3.17,0.07-4.15c-0.7-0.99,1.34-1.62,2.67-1.06c1.34,0.56,7.52,4.99,4.16,12.14 c-2.08,4.44-7.33,5.11-7.33,5.11s8.8,3.89,12.02,13.7c3.54,10.8-0.33,17.98-4.34,24.87c-4.01,6.9-3.65,7.31-3.87,9.57 c-0.28,2.82-1.13,6.34-2.18,6.26c-1.06-0.07-2.32-3.03-2.96-6.26c-0.63-3.24-4.58-6.41-7.74-9.29S85.28,93.13,83,86.17 c-2.89-8.8-1.41-21.05-1.41-21.05s-8.73-4.01-13.59-12.04c-5.26-8.69-4.79-15.06-4.79-15.06s1.34-3.8,1.41-6.41 S63.57,25.98,63.57,25.98z" fill="#E74B8C"/>
  <path d="M77.3,32.04c0.61,2.62,5.42,1.27,6.34-3.17s-1.62-6.41-3.1-5.56c-1.48,0.84,0.35,3.1-0.63,5 S76.8,29.92,77.3,32.04z" fill="#F081AF"/>
  <path d="M101.7,57.6c-0.84,2.56,3.55,3.45,6.99,0.69c3.53-2.84,2.53-7.04,0.49-6.83 c-2.59,0.27-1.49,3.2-3.32,4.31C104.03,56.89,102.38,55.55,101.7,57.6z" fill="#F081AF"/>
  <path d="M71.74,35.34c-3.38-0.42-3.85,6.17-1.76,10.7c3.31,7.18,8.8,5.84,12.6,10.49 c2.94,3.6,2.25,8.24,5.28,8.17c3.03-0.07,3.8-5.14-0.84-11.33c-4.65-6.19-10.49-6.19-12.25-9.92C73,39.71,75.68,35.84,71.74,35.34z" fill="#F081AF"/>
  <path d="M88.91,67.23c-3.87,2.21-1.11,7.22,0.99,7.67c2.96,0.63,4.29-1.34,4.65-3.31S92.85,64.98,88.91,67.23 z" fill="#F081AF"/>
  <path d="M91.87,79.13c-3.06,0.5-2.72,3.57-2.18,6.69c0.92,5.35,3.73,10.49,7.04,13.23 c3.2,2.65,5,1.83,5.91,0.77c1.08-1.24,0.07-3.45-1.2-4.93c-1.27-1.48-2.91-3.38-4.01-5c-1.34-1.97-1.5-4.53-1.76-5.98 C95.18,81.1,94.89,78.63,91.87,79.13z" fill="#F081AF"/>
  <path d="M11.34,93.28c3.1,5.85,10.35,4.36,10.35,4.36s6.83-3.1,6.83-3.31c0-0.21,4.5-5.91,4.5-5.91 s-1.2-5.14-5.84-10.77c-3.67-4.44-7.53-6.62-7.53-6.62l-8.45,7.6C11.2,78.63,6.98,85.04,11.34,93.28z" fill="#FFFFFF"/>
  <path d="M16.9,77.86c-0.49,1.83,1.13,2.53,1.69,3.17c0.56,0.63-0.77,3.31,1.13,4.01 c1.9,0.7,4.08-2.46,3.38-5.21C22.34,76.89,17.64,75.12,16.9,77.86z" fill="#90909B"/>
  <path d="M20.49,70.8c-0.49-0.94-1.57-0.47-2.63,0.52c-1.06,0.99-7.04,5.35-8.73,9.34 C7.89,83.59,7,89.24,10.22,93.84c3.34,4.78,6.34,5.24,10.91,4.86c6.69-0.56,10.39-6.05,11.1-6.97s2.25-2.91,1.41-3.89 c-0.84-0.99-1.63,0.44-2.72,1.92c-1.41,1.9-2.53,3.05-3.94,4.32c-0.82,0.74-3.17,2.02-4.15,2.23c-0.99,0.21,1.95-1.48,3.1-3.45 c0.78-1.33,2.39-4.5,2.39-4.5l-2.75-0.84c0,0-1.34,2.91-2.39,4.18c-1.06,1.27-4.36,4.13-5.35,4.34c-0.99,0.21-4.72-1.45-6.38-4.43 c-1.6-2.86-1.85-6.97-0.23-10.21c1.62-3.24,5.7-6.55,6.97-7.53C19.44,72.86,21.12,72,20.49,70.8z" fill="#AFAFAF"/>
  <path d="M28.52,85.63c-0.76-0.66-2.02-0.19-2.67,0.7c-0.66,0.89-0.89,1.92,0.42,2.63 c1.31,0.7,2.16-0.05,2.77-0.89C29.64,87.22,29.22,86.24,28.52,85.63z" fill="#90909B"/>
</svg>

<svg viewBox="0 0 128 128" xmlns="http://www.w3.org/2000/svg">
  <defs/>
  <path d="M51.09,24.81 C51.09,24.81 40.11,22.3 31.19,26.05 C22.83,29.57 21.64,36.28 22.39,40.13 C23.14,43.98 25.56,47.35 30.41,47.66 C33.72,47.87 34.84,45.97 34.38,45.17 C34.14,44.76 30.63,42.54 32.24,39.77 C33.59,37.46 38.14,39.59 39.44,41.6 C40.66,43.48 42.26,46.2 42.26,46.2 C42.26,46.2 56.06,40.29 55.77,39.91 C55.48,39.53 51.09,24.81 51.09,24.81 Z" fill="#E74B8C"/>
  <path d="M50.43,32.51 L46.11,28.66 L39.03,37.25 L43.06,43.53 L53.34,39.03 Z" fill="#FCD817"/>
  <path d="M28.85,36.26 C28.31,37.85 28.79,40.4 26.79,40.62 C24.73,40.85 23.24,38.36 24.49,34.38 C25.57,30.95 29.83,28.91 31.48,31.71 C32.69,33.77 29.83,33.35 28.85,36.26 Z" fill="#EF7FAD"/>
  <path d="M38.84,21.01 C38.56,21.48 33.68,28.66 33.68,28.66 L38.37,36.12 L44,33.26 L45.17,27.58 L38.84,21.01 Z" fill="#BBD047"/>
  <path d="M33.49,15.52 L29.22,20.91 L33.4,28.19 L37.29,26.26 L39.08,21.15 Z" fill="#62A5A8"/>
  <path d="M27.67,9.65 L24.72,12.75 L29.08,20.59 L31.57,18.76 L33.3,15.28 Z" fill="#38B2E8"/>
  <path d="M22.04,5.76 C21.03,6.77 24.71,12.71 24.71,12.71 C24.71,12.71 27.43,9.61 27.43,9.43 C27.44,9.23 23.21,4.58 22.04,5.76 Z" fill="#A37BCB"/>
  <path d="M45.18,27.2 C46.54,26.82 47.48,29.36 46.26,31.94 C45.17,34.24 43.59,36.02 41.47,37.2 C40.42,37.78 38.84,38.42 38.23,37.29 C37.57,36.08 38.32,35.46 39.64,34.52 C40.85,33.65 42.08,32.36 42.78,31.14 C43.48,29.92 44.16,27.48 45.18,27.2 Z" fill="#A364B2"/>
  <path d="M38.7,20.4 C39.8,20.08 40.62,22.28 39.63,24.49 C38.75,26.46 37.66,28.03 35.96,29.04 C35.12,29.54 33.84,30.09 33.35,29.12 C32.82,28.08 33.32,27.35 34.38,26.54 C35.36,25.8 36.21,24.44 36.77,23.4 C37.34,22.36 37.88,20.64 38.7,20.4 Z" fill="#A364B2"/>
  <path d="M33.09,14.4 C34,14.65 34.64,16.26 33.82,17.91 C33.09,19.38 32.38,20.16 30.96,20.91 C30.25,21.28 29.43,21.75 28.98,21.19 C28.41,20.49 28.2,19.49 29.09,18.89 C29.91,18.34 30.83,17.67 31.44,16.5 C31.85,15.69 32.25,14.17 33.09,14.4 Z" fill="#A364B2"/>
  <path d="M27.07,8.84 C27.69,8.69 28.45,9.99 27.9,11.03 C27.41,11.96 26.78,12.55 25.82,13.03 C25.35,13.27 24.82,13.41 24.54,12.96 C24.24,12.47 23.96,12.13 24.56,11.75 C25.11,11.4 25.88,10.61 26.2,10.11 C26.52,9.62 26.61,8.96 27.07,8.84 Z" fill="#A364B2"/>
  <path d="M50.28,119.9 C49.27,119.23 54.28,101.81 56.25,97.17 C58.22,92.52 59.39,88.63 59.39,88.63 C59.39,88.63 49.96,90.08 43.86,90.13 C39.21,90.17 32.46,89.57 32.46,89.57 L18.94,71.83 C18.94,71.83 22.74,64.93 24.99,62.12 C27.24,59.3 34,50.15 37.38,46.92 C40.76,43.68 45.4,40.3 47.38,39.46 C49.35,38.62 50.62,38.05 50.62,38.05 C50.62,38.05 49.63,32 50.06,28.2 C50.48,24.4 55.87,13.79 56.72,13.79 C57.85,13.79 62.73,21.02 63.71,25.94 C64.7,30.86 75.4,44.66 75.4,44.66 L106.65,103.79 C106.65,103.79 107.21,119.56 107.07,120.12 C106.93,120.68 89.61,123.08 79.05,123.08 C68.49,123.08 51.13,120.47 50.28,119.9 Z" fill="#DFDFDF"/>
  <path d="M71.57,69.38 C70.53,69.33 67.56,75.28 64.58,79.66 C62.07,83.34 59.13,85.11 55.99,86.75 C52.75,88.44 47.94,89.54 49.58,89.87 C51.22,90.2 61.01,89.11 64.29,87.73 C66.14,86.96 68.72,83.15 70.04,80.62 C71.36,78.09 73.73,69.47 71.57,69.38 Z" fill="#B0B0B0"/>
  <path d="M53.79,57.94 C54,61.04 52.87,63.71 49.64,63.92 C47.36,64.07 45.65,61.76 45.36,58.94 C45.13,56.74 46.05,53.9 49.06,53.48 C51.89,53.08 53.59,55.11 53.79,57.94 Z" fill="#303030"/>
  <path d="M63.57,25.98 C63.57,25.98 72.06,29.8 75.33,29.08 C77.86,28.52 78.74,26.69 78.85,24.86 C78.99,22.4 76.81,22.68 76.46,21.69 C76.11,20.7 78.71,18.94 81.74,19.51 C84.77,20.07 88.38,22.87 88.31,27.37 C88.24,31.87 85.47,34.29 85.47,34.29 C85.47,34.29 92.77,33.94 97.65,38.94 C103.14,44.57 101.94,53.79 101.94,53.79 C101.94,53.79 104.83,54.21 105.88,52.73 C106.93,51.25 106.65,49.56 105.95,48.58 C105.25,47.59 107.29,46.96 108.62,47.52 C109.96,48.08 116.14,52.51 112.78,59.66 C110.7,64.1 105.45,64.77 105.45,64.77 C105.45,64.77 114.25,68.66 117.47,78.47 C121.01,89.27 117.14,96.45 113.13,103.34 C109.12,110.24 109.48,110.65 109.26,112.91 C108.98,115.73 108.13,119.25 107.08,119.17 C106.02,119.1 104.76,116.14 104.12,112.91 C103.49,109.67 99.54,106.5 96.38,103.62 C93.22,100.74 85.28,93.13 83,86.17 C80.11,77.37 81.59,65.12 81.59,65.12 C81.59,65.12 72.86,61.11 68,53.08 C62.74,44.39 63.21,38.02 63.21,38.02 C63.21,38.02 64.55,34.22 64.62,31.61 C64.69,29 63.57,25.98 63.57,25.98 Z" fill="#E74B8C"/>
  <path d="M77.3,32.04 C77.91,34.66 82.72,33.31 83.64,28.87 C84.56,24.43 82.02,22.46 80.54,23.31 C79.06,24.15 80.89,26.41 79.91,28.31 C78.93,30.21 76.8,29.92 77.3,32.04 Z" fill="#F081AF"/>
  <path d="M101.7,57.6 C100.86,60.16 105.25,61.05 108.69,58.29 C112.22,55.45 111.22,51.25 109.18,51.46 C106.59,51.73 107.69,54.66 105.86,55.77 C104.03,56.89 102.38,55.55 101.7,57.6 Z" fill="#F081AF"/>
  <path d="M71.74,35.34 C68.36,34.92 67.89,41.51 69.98,46.04 C73.29,53.22 78.78,51.88 82.58,56.53 C85.52,60.13 84.83,64.77 87.86,64.7 C90.89,64.63 91.66,59.56 87.02,53.37 C82.37,47.18 76.53,47.18 74.77,43.45 C73,39.71 75.68,35.84 71.74,35.34 Z" fill="#F081AF"/>
  <path d="M88.91,67.23 C85.04,69.44 87.8,74.45 89.9,74.9 C92.86,75.53 94.19,73.56 94.55,71.59 C94.91,69.62 92.85,64.98 88.91,67.23 Z" fill="#F081AF"/>
  <path d="M91.87,79.13 C88.81,79.63 89.15,82.7 89.69,85.82 C90.61,91.17 93.42,96.31 96.73,99.05 C99.93,101.7 101.73,100.88 102.64,99.82 C103.72,98.58 102.71,96.37 101.44,94.89 C100.17,93.41 98.53,91.51 97.43,89.89 C96.09,87.92 95.93,85.36 95.67,83.91 C95.18,81.1 94.89,78.63 91.87,79.13 Z" fill="#F081AF"/>
  <path d="M11.34,93.28 C14.44,99.13 21.69,97.64 21.69,97.64 C21.69,97.64 28.52,94.54 28.52,94.33 C28.52,94.12 33.02,88.42 33.02,88.42 C33.02,88.42 31.82,83.28 27.18,77.65 C23.51,73.21 19.65,71.03 19.65,71.03 L11.2,78.63 C11.2,78.63 6.98,85.04 11.34,93.28 Z" fill="#FFFFFF"/>
  <path d="M16.9,77.86 C16.41,79.69 18.03,80.39 18.59,81.03 C19.15,81.66 17.82,84.34 19.72,85.04 C21.62,85.74 23.8,82.58 23.1,79.83 C22.34,76.89 17.64,75.12 16.9,77.86 Z" fill="#90909B"/>
  <path d="M20.49,70.8 C20,69.86 18.92,70.33 17.86,71.32 C16.8,72.31 10.82,76.67 9.13,80.66 C7.89,83.59 7,89.24 10.22,93.84 C13.56,98.62 16.56,99.08 21.13,98.7 C27.82,98.14 31.52,92.65 32.23,91.73 C32.94,90.81 34.48,88.82 33.64,87.84 C32.8,86.85 32.01,88.28 30.92,89.76 C29.51,91.66 28.39,92.81 26.98,94.08 C26.16,94.82 23.81,96.1 22.83,96.31 C21.84,96.52 24.78,94.83 25.93,92.86 C26.71,91.53 28.32,88.36 28.32,88.36 L25.57,87.52 C25.57,87.52 24.23,90.43 23.18,91.7 C22.12,92.97 18.82,95.83 17.83,96.04 C16.84,96.25 13.11,94.59 11.45,91.61 C9.85,88.75 9.6,84.64 11.22,81.4 C12.84,78.16 16.92,74.85 18.19,73.87 C19.44,72.86 21.12,72 20.49,70.8 Z" fill="#AFAFAF"/>
  <path d="M28.52,85.63 C27.76,84.97 26.5,85.44 25.85,86.33 C25.19,87.22 24.96,88.25 26.27,88.96 C27.58,89.66 28.43,88.91 29.04,88.07 C29.64,87.22 29.22,86.24 28.52,85.63 Z" fill="#90909B"/>
</svg>
